svgs/light/user-nurse.svg

<svg xmlns="http://www.w3.org/2000/svg" viewBox="0 0 448 512"><!--! Font Awesome Pro 6.3.0 by @fontawesome - https://fontawesome.com License - https://fontawesome.com/license (Commercial License) Copyright 2023 Fonticons, Inc. --><path d="M447.1 477.4c0-120.1-103.5-159.1-112.9-159.1c-8.385 0-16.64 3.214-22.82 9.398L224 416l-88.26-88.26c-6.185-6.184-14.44-9.397-22.83-9.397c-9.973 0-112.9 39.52-112.9 159.1C.0006 502.4 21.51 512 34.66 512H413.3C426.2 512 447.1 502.6 447.1 477.4zM413.3 480H34.66C33.2 480 32 478.8 32 477.3c0-55.04 31.85-104 80.95-127.1l88.43 88.43C207.6 444.9 215.8 448 224 448s16.38-3.125 22.63-9.373l88.43-88.43C384.1 373.3 416 422.3 416 477.3C416 478.8 414.8 480 413.3 480zM248 72H240V64c0-8.844-7.156-16-16-16S208 55.16 208 64v8H200c-8.844 0-16 7.156-16 16s7.156 16 16 16H208V112C208 120.8 215.2 128 224 128s16-7.156 16-16V104h8c8.844 0 16-7.156 16-16S256.8 72 248 72zM224 304c70.2 0 128-57.42 128-128V65.88c0-13.38-8.25-25.38-20.75-30L246.5 4.125C239.3 1.375 231.6 0 224 0S208.8 1.375 201.5 4.125L116.8 35.88C104.3 40.5 96 52.5 96 65.88V176C96 246.6 153.8 304 224 304zM127.1 65.84l84.87-31.79C216.4 32.69 220.2 32 224 32s7.574 .6875 11.27 2.09L320 65.88V144H127.1L127.1 65.84zM319.5 176c0 52.94-42.83 96-95.49 96s-95.49-43.06-95.49-96H319.5z"/></svg>

<svg xmlns="http://www.w3.org/2000/svg" viewBox="0 0 448 512"><!-- Font Awesome Pro 6.0.0-alpha2 by @fontawesome - https://fontawesome.com License - https://fontawesome.com/license (Commercial License) --><path d="M447.997 477.33C447.997 357.196 344.468 318.338 335.086 318.338C326.701 318.338 318.446 321.552 312.262 327.736L223.998 416L135.737 327.736C129.551 321.552 121.296 318.339 112.911 318.339C102.938 318.339 0 357.798 0 477.33C0 502.342 21.51 512 34.662 512H413.334C426.216 512 447.997 502.511 447.997 477.33ZM413.334 480H34.662C33.194 480 31.998 478.803 31.998 477.332C31.998 422.289 63.852 373.285 112.946 350.201L201.371 438.627C207.62 444.875 215.809 448 223.998 448S240.377 444.875 246.627 438.627L335.053 350.201C384.145 373.279 415.998 422.285 415.998 477.332C415.998 478.803 414.803 480 413.334 480ZM247.998 72H239.998V64C239.998 55.156 232.842 48 223.998 48S207.998 55.156 207.998 64V72H199.998C191.155 72 183.998 79.156 183.998 88S191.155 104 199.998 104H207.998V112C207.998 120.844 215.155 128 223.998 128S239.998 120.844 239.998 112V104H247.998C256.842 104 263.998 96.844 263.998 88S256.842 72 247.998 72ZM223.998 304C294.202 304 351.998 246.578 351.998 176V65.875C351.998 52.5 343.748 40.5 331.248 35.875L246.498 4.125C239.248 1.375 231.623 0 223.998 0S208.748 1.375 201.498 4.125L116.748 35.875C104.248 40.5 95.998 52.5 95.998 65.875V176C95.998 246.578 153.795 304 223.998 304ZM127.975 65.84L212.848 34.045C216.424 32.688 220.176 32 223.998 32S231.573 32.688 235.272 34.09L319.998 65.875V144H127.993L127.975 65.84ZM319.487 176C319.487 228.938 276.655 272 223.998 272S128.51 228.938 128.51 176H319.487Z "></path></svg>
